public/images/icn_numpad.svg

<svg id="Layer_1" xmlns="http://www.w3.org/2000/svg" viewBox="0 0 50 50"><style>.st0{fill:#ccc}</style><path class="st0" d="M25 6.4c10.2 0 18.6 8.3 18.6 18.6S35.3 43.6 25 43.6 6.4 35.2 6.4 25 14.8 6.4 25 6.4M25 5C14 5 5 14 5 25s9 20 20 20 20-9 20-20S36.1 5 25 5z" id="Button_0"/><path class="st0" d="M17.3 16.8h3.1v3.1h-3.1v-3.1zm6.2 3h3.1v-3.1h-3.1v3.1zm6.1 0h3.1v-3.1h-3.1v3.1zM17.3 25h3.1v-3.1h-3.1V25zm6.2 0h3.1v-3.1h-3.1V25zm6.1 0h3.1v-3.1h-3.1V25zm-12.3 5.1h3.1V27h-3.1v3.1zm6.2 0h3.1V27h-3.1v3.1zm0 5.1h3.1v-3.1h-3.1v3.1zm6.1-5.1h3.1V27h-3.1v3.1z"/></svg>

<?xml version="1.0" encoding="utf-8"?>
<!-- Generator: Adobe Illustrator 20.1.0, SVG Export Plug-In . SVG Version: 6.00 Build 0)  -->
<svg version="1.1" id="Layer_1" xmlns="http://www.w3.org/2000/svg" xmlns:xlink="http://www.w3.org/1999/xlink" x="0px" y="0px"
	 viewBox="0 0 50 50" style="enable-background:new 0 0 50 50;" xml:space="preserve">
<style type="text/css">
	.st0{fill:#CCCCCC;}
</style>
<g id="Button_0">
	<path class="st0" d="M25,6.4c10.2,0,18.6,8.3,18.6,18.6S35.3,43.6,25,43.6S6.4,35.2,6.4,25S14.8,6.4,25,6.4 M25,5C14,5,5,14,5,25
		s9,20,20,20s20-9,20-20S36.1,5,25,5L25,5z"/>
</g>
<path class="st0" d="M17.3,16.8h3.1v3.1h-3.1V16.8z M23.5,19.8h3.1v-3.1h-3.1V19.8z M29.6,19.8h3.1v-3.1h-3.1V19.8z M17.3,25h3.1
	v-3.1h-3.1V25z M23.5,25h3.1v-3.1h-3.1V25z M29.6,25h3.1v-3.1h-3.1V25z M17.3,30.1h3.1V27h-3.1V30.1z M23.5,30.1h3.1V27h-3.1V30.1z
	 M23.5,35.2h3.1v-3.1h-3.1V35.2z M29.6,30.1h3.1V27h-3.1V30.1z"/>
</svg>
